!!!OTL: 711. Die Alte.
!!!ARE: Europa, Mitteleuropa, Deutschland
!!!SCT: B0711
!!!TXL: @@DE
!!!YEM: Copyright 1995, estate of Helmut Schaffrath.
**kern	**text
*ICvox	*
*Ivox	*
*clefG2	*
*M2/4	*
*k[f#]	*
*G:	*
!LO:TX:a:t=Herʒhaft und munter.	!
{8g	Ʒu
=1	=1
4dd	mei-
4ee	-ner
=2	=2
4dd	Ʒeit
8r}	.
{8gg	be-
=3	=3
8ff#	-ſtand
8ee	noch
8dd	Recht
8cc	und
=4	=4
8.b	Bil-
16a	-lig-
8g}	-keit.
{8g	Da
=5	=5
8gqq	.
4.f#	wur-
8g	-den
=6	=6
8gqq	.
4.f#}	auch
{8g	aus
=7	=7
16ddqq	.
(16ccL	Kin-
16b	.
16cc	.
16dd	.
8ccJ)	.
8a	-dern
=8	=8
4b	Leu-
8a}	-te.
{8g	da
=9	=9
8gqq	.
4.f#	wur-
8g	-den
=10	=10
8gqq	.
4.f#}	auch
{8g	aus
=11	=11
8ddqq	.
(16ccL	Jung-
16b	.
16cc	.
16dd	.
8ccJ)	.
8a	-fern
=12	=12
4b	Bräu-
8a}	-te
{8d	doch
=13	=13
4.b	al-
16ddL	-les
16bJ	.
=14	=14
4a}	in
{4dd	Be-
=15	=15
4dd	-ſchei-
4cc#t	-den-
=16	=16
4dd	-heit.
8r}	.
{16ddL	Es
16eeJ	.
=17	=17
4ffn	ward
4a	kein
=18	=18
8aqq	.
4.g#}	Lieb-
{8a	-ling
=19	=19
(16g#\L	ʒum
16a	.
16b	.
16cc	.
8ddJ)	.
8b	Ver-
=20	=20
4cc	-rä-
8b}	-ther,
{16ccL	und
16ddJ	.
=21	=21
4ee	un-
4g	-ſre
=22	=22
8gqq	.
4.f#}	Jung-
{8g	-fern
=23	=23
16f#L	frei-
16g	.
16a	.
16b	.
8ccJ	.
8a	-ten
=24	=24
4b	ſpä-
8a}	-ter
{16bL	ſie
16ccJ	.
=25	=25
8dd	reiʒ-
8dd	-ten
8dd	nicht
16bL	der
16ccJ	.
=26	=26
8dd	Mut-
8dd	-ter
8dd}	Neid.
{8gg	O
=27	=27
4b	gu-
4aT	-te
=28	=28
4g	Ʒeit!
8r}	.
==	==
!!!AGN: Scherz - Lied
!!!GTL: Scherzlieder und Gemischtes
!!!ONB: ESAC (Essen Associative Code) Database: BOEHME
!!!AMT: simple duple
!!!AIN: vox
!!!EED: Helmut Schaffrath
!!!EEV: 1.0
!!Mel. bei Krause, Lieder der Deutschen mit Melodien. Berlin 1767, Nr. 47.
!!@@COMMENT:"Ged. v. Hagedorn. Ʒuerſt im 2. Theil ſeiner Sammlung neuer Lieder und Oden. Hamb. 1744 Nr. 44, mit einer Mel, 
!!vom Hamb. Organiſten Görner. - Eine bekannte Mel. daʒu giebts auch v. Moʒart, am 18. Mai 1784 komponirt.
!!Nach einer Notiʒ im Morgenbl. 1812 Nr. 53 wäre der Text die Nachbildung eines franʒ. Gaſſenhauers."
!!@@END:
!!!Text: F. von Hagedorn
!!!URL-scan: https://archive.org/details/BoehmeVtLieder1895/page/n559/mode/2up
!!!ENC: Anna Maria Matuszewska
!!!EEV: 2024/17/07
*-	*-
